X:1
T:Lieut. Col. Baillie of Leys
L:1/8
M:4/4
I:linebreak $
K:D
V:1 treble 
V:1
 F || D2 F>A d>AF>D | E<B, E>D C<EC<A, | D2 F>A d>AF>D | f>de>c dc/B/ A/G/F/E/ |$ D2 F>A d>AF>D | %6
 E<B, E>D C<EC<A, | D2 F>A d>AF>A | B>g f/e/d/c/ d3 || e |$ f>dg>e f>dA>F | G<eF<d e>Ac>A | %12
 f>dg>e f>de>c | B>g f/e/d/c/ d3 e |$ f<dg>e f>dA>F | G<eF<d e>Ac>A | D2 F>A d>AF>A | %17
 B>g f/e/d/c/ e/d/c/B/ A/G/F/E/ || %18
